images/nuxtLogo.svg

<svg width="870" height="265" viewBox="0 0 870 265" fill="none" xmlns="http://www.w3.org/2000/svg"><g id="NUXT_logo" opacity=".6"><g id="Group" fill-rule="evenodd" clip-rule="evenodd"><path id="Vector" d="M373.4 137.737c1 1.1 1.7 2.6 1.6 4.2v81.5c0 1.7-.6 3.4-1.8 4.7a6.188 6.188 0 01-4.6 1.9c-1 0-2-.2-3-.5a4.995 4.995 0 01-2.1-1.4l-52.8-68.7v64.6a5.695 5.695 0 01-3.678 5.539 5.676 5.676 0 01-2.322.361c-1.5 0-3-.6-4-1.7a5.8 5.8 0 01-1.7-4.1v-81.7c0-1.7.7-3.4 2-4.6a6.008 6.008 0 014.3-1.8c1 0 2.1.2 3 .6 1 .3 1.8 1 2.4 1.7l52.5 68.9v-65.3a5.693 5.693 0 011.7-4.272 5.709 5.709 0 014.3-1.628c1.5 0 3 .5 4 1.7h.2zm108.7.2c1.1 1.3 1.8 3 1.7 4.6v51.6c.1 6.6-1.5 13.2-4.7 19-3 5.6-7.5 10.2-13 13.3-5.6 3.3-12 5-18.6 4.9-6.5 0-13-1.6-18.8-4.8a33.99 33.99 0 01-13-13.2 38.597 38.597 0 01-4.7-19.1v-51.6c0-1.7.6-3.4 2-4.6a6.704 6.704 0 019.3 0c1.2 1.2 1.9 2.8 1.9 4.6v51.4c-.1 4.4 1 8.7 3.2 12.6a23.196 23.196 0 0020.1 11.7 23.987 23.987 0 0017.142-7.099 24.001 24.001 0 006.958-17.201v-51.4c0-1.7.5-3.4 1.6-4.7 1.2-1.3 2.8-2 4.5-1.9 1.7 0 3.3.7 4.4 1.9zm103.9 81.8a6.303 6.303 0 011.1 3.8c.1 1.7-.6 3.4-1.9 4.6a6.398 6.398 0 01-4.3 1.7c-2.1.1-4.1-1-5.3-2.7l-26-34.8-25.6 34.8a6.198 6.198 0 01-5.2 2.8c-1.6 0-3-.6-4.1-1.7-1-1-1.7-2.4-1.7-3.8 0-1.6.6-3.2 1.6-4.4l27.6-37.5-27.7-37.2a6.197 6.197 0 01.5-8.4 6.3 6.3 0 017.4-1.2 6.01 6.01 0 012.4 2l25.8 34.6 25.4-34.3c1.1-1.7 3-2.8 5.1-3 1.6 0 3.2.8 4.3 2 1.1 1 1.8 2.5 1.9 4 0 1.5-.5 2.8-1.4 4l-28 37.2 28 37.5h.1zm96.5-82c1.2 1.1 2 2.8 1.9 4.5 0 1.7-.7 3.3-2 4.4-1.2 1.1-2.9 1.7-4.6 1.6H654v75.4c0 1.7-.6 3.3-1.9 4.5a7.396 7.396 0 01-9.8 0 6.2 6.2 0 01-2-4.5v-75.4h-23.8c-1.7 0-3.3-.5-4.6-1.7a5.884 5.884 0 01-1.9-4.5c0-1.6.6-3.2 1.8-4.3 1.3-1.2 3-1.8 4.6-1.7h61.4c1.7 0 3.4.5 4.7 1.7z" fill="#2F495E"/><path id="Vector_2" d="M711.7 227.637c-4.3-2.4-8-6-10.5-10.3-.7-1-1.1-2.3-1.2-3.6 0-1.7.7-3.3 2-4.4 1.1-1.2 2.6-1.8 4.2-2 2.4.3 4.6 1.5 6 3.4 3 5 8.4 8 14.1 7.8a17.207 17.207 0 0012.487-4.857A17.207 17.207 0 00744 201.337v-58.8a6.01 6.01 0 012-4.6c1.3-1.2 3-1.9 4.7-1.9 1.8 0 3.5.6 4.8 1.8a6.308 6.308 0 011.8 4.6v59a29.004 29.004 0 01-15 26 31.2 31.2 0 01-30.5.2h-.1zm92.5.4c-5.3-2-10.2-5-14.4-9a7.194 7.194 0 01-2.8-5.4 6.004 6.004 0 012-4.4 6.002 6.002 0 014.3-1.9c1.5 0 2.8.5 3.9 1.5 3.2 3 7 5.5 11 7.3 4.2 1.6 8.6 2.4 13 2.4 5 .1 10-1.2 14.3-4 3.5-2 5.8-5.7 5.8-9.8.1-4.3-2.1-8.4-5.8-10.8a52.017 52.017 0 00-17.4-6.3c-9.2-2-16.3-5-21.3-9.3-5-4.3-7.4-10.3-7.4-17.9-.1-5 1.3-9.9 4.2-14 2.9-4 6.8-7.2 11.4-9.2a45.5 45.5 0 0132.4-.5 33.008 33.008 0 0112 7.1c1.8 1.4 3 3.5 3 5.7a6 6 0 01-1.8 4.3 5.693 5.693 0 01-4.4 2c-1 0-2.2-.4-3-1.1a32.106 32.106 0 00-21.4-8.2c-5-.3-10 1-14.3 3.6a11.904 11.904 0 00-3.889 15.514c.924 1.727 2.26 3.2 3.889 4.286a49.954 49.954 0 0015.8 6c5.9 1.1 11.6 3 17.1 5.3 4.2 1.9 7.8 4.8 10.3 8.6 2.6 4.4 3.8 9.3 3.6 14.4.1 5-1.4 9.8-4.3 13.8-3 4.2-7.2 7.4-12 9.4a49.795 49.795 0 01-33.9.6h.1z" fill="#00C48D"/></g><g id="Group_2"><path id="Vector_3" d="M145.242 94.854l-8.723 15.074-29.833-51.564-91.584 158.271H77.11c0 8.325 6.763 15.073 15.106 15.073H15.102a15.108 15.108 0 01-13.079-7.538 15.045 15.045 0 010-15.072l91.584-158.27a15.111 15.111 0 0113.082-7.538 15.112 15.112 0 0113.082 7.537l25.471 44.027z" fill="#00C58E"/><path id="Vector_4" d="M211.354 209.098l-57.388-99.17-8.724-15.074-8.723 15.074-57.382 99.17a15.046 15.046 0 000 15.072 15.108 15.108 0 0013.079 7.538h106.04a15.113 15.113 0 0013.084-7.535 15.045 15.045 0 00.001-15.075h.013zm-119.138 7.537l53.026-91.634 53.014 91.634H92.216z" fill="#2F495E"/><path id="Vector_5" d="M252.384 224.172a15.108 15.108 0 01-13.079 7.536h-41.049c8.343 0 15.105-6.748 15.105-15.073h25.913L165.748 89.56l-11.782 20.368-8.724-15.074 7.427-12.831a15.11 15.11 0 0113.082-7.537 15.11 15.11 0 0113.082 7.537l73.551 127.075a15.048 15.048 0 010 15.074z" fill="#108775"/></g></g></svg>

<svg width="870" height="265" viewBox="0 0 870 265" fill="none" xmlns="http://www.w3.org/2000/svg">
<g id="NUXT_logo" opacity="0.6">
<g id="Group">
<path id="Vector" fill-rule="evenodd" clip-rule="evenodd" d="M373.4 137.737C374.4 138.837 375.1 140.337 375 141.937V223.437C375 225.137 374.4 226.837 373.2 228.137C372.606 228.755 371.891 229.242 371.099 229.569C370.307 229.896 369.456 230.056 368.6 230.037C367.6 230.037 366.6 229.837 365.6 229.537C364.792 229.258 364.069 228.776 363.5 228.137L310.7 159.437V224.037C310.729 224.829 310.593 225.617 310.3 226.353C310.007 227.088 309.565 227.755 309 228.31C308.436 228.865 307.762 229.296 307.022 229.576C306.281 229.857 305.491 229.98 304.7 229.937C303.2 229.937 301.7 229.337 300.7 228.237C299.612 227.15 299.001 225.675 299 224.137V142.437C299 140.737 299.7 139.037 301 137.837C301.56 137.266 302.23 136.812 302.968 136.503C303.707 136.194 304.499 136.035 305.3 136.037C306.3 136.037 307.4 136.237 308.3 136.637C309.3 136.937 310.1 137.637 310.7 138.337L363.2 207.237V141.937C363.171 141.146 363.307 140.358 363.6 139.622C363.893 138.887 364.335 138.22 364.9 137.665C365.464 137.11 366.138 136.679 366.878 136.398C367.619 136.118 368.409 135.995 369.2 136.037C370.7 136.037 372.2 136.537 373.2 137.737H373.4ZM482.1 137.937C483.2 139.237 483.9 140.937 483.8 142.537V194.137C483.9 200.737 482.3 207.337 479.1 213.137C476.1 218.737 471.6 223.337 466.1 226.437C460.5 229.737 454.1 231.437 447.5 231.337C441 231.337 434.5 229.737 428.7 226.537C423.228 223.426 418.728 218.856 415.7 213.337C412.51 207.483 410.891 200.903 411 194.237V142.637C411 140.937 411.6 139.237 413 138.037C414.249 136.834 415.916 136.161 417.65 136.161C419.384 136.161 421.051 136.834 422.3 138.037C423.5 139.237 424.2 140.837 424.2 142.637V194.037C424.1 198.437 425.2 202.737 427.4 206.637C429.424 210.184 432.349 213.134 435.878 215.188C439.407 217.242 443.416 218.329 447.5 218.337C450.686 218.351 453.842 217.73 456.785 216.511C459.728 215.292 462.399 213.5 464.642 211.238C466.886 208.976 468.656 206.29 469.851 203.337C471.045 200.384 471.64 197.223 471.6 194.037V142.637C471.6 140.937 472.1 139.237 473.2 137.937C474.4 136.637 476 135.937 477.7 136.037C479.4 136.037 481 136.737 482.1 137.937ZM586 219.737C586.765 220.853 587.151 222.186 587.1 223.537C587.2 225.237 586.5 226.937 585.2 228.137C584.029 229.22 582.495 229.826 580.9 229.837C578.8 229.937 576.8 228.837 575.6 227.137L549.6 192.337L524 227.137C523.434 228 522.663 228.707 521.755 229.196C520.847 229.685 519.831 229.94 518.8 229.937C517.2 229.937 515.8 229.337 514.7 228.237C513.7 227.237 513 225.837 513 224.437C513 222.837 513.6 221.237 514.6 220.037L542.2 182.537L514.5 145.337C513.512 144.131 513.014 142.597 513.107 141.04C513.199 139.483 513.875 138.018 515 136.937C515.942 135.971 517.17 135.333 518.502 135.117C519.834 134.901 521.201 135.118 522.4 135.737C523.363 136.181 524.191 136.871 524.8 137.737L550.6 172.337L576 138.037C577.1 136.337 579 135.237 581.1 135.037C582.7 135.037 584.3 135.837 585.4 137.037C586.5 138.037 587.2 139.537 587.3 141.037C587.3 142.537 586.8 143.837 585.9 145.037L557.9 182.237L585.9 219.737H586ZM682.5 137.737C683.7 138.837 684.5 140.537 684.4 142.237C684.4 143.937 683.7 145.537 682.4 146.637C681.2 147.737 679.5 148.337 677.8 148.237H654V223.637C654 225.337 653.4 226.937 652.1 228.137C650.747 229.333 649.005 229.992 647.2 229.992C645.395 229.992 643.652 229.333 642.3 228.137C641.677 227.564 641.178 226.868 640.834 226.095C640.49 225.321 640.308 224.484 640.3 223.637V148.237H616.5C614.8 148.237 613.2 147.737 611.9 146.537C611.28 145.967 610.79 145.27 610.462 144.493C610.135 143.717 609.977 142.88 610 142.037C610 140.437 610.6 138.837 611.8 137.737C613.1 136.537 614.8 135.937 616.4 136.037H677.8C679.5 136.037 681.2 136.537 682.5 137.737Z" fill="#2F495E"/>
<path id="Vector_2" fill-rule="evenodd" clip-rule="evenodd" d="M711.7 227.637C707.4 225.237 703.7 221.637 701.2 217.337C700.5 216.337 700.1 215.037 700 213.737C700 212.037 700.7 210.437 702 209.337C703.1 208.137 704.6 207.537 706.2 207.337C708.6 207.637 710.8 208.837 712.2 210.737C715.2 215.737 720.6 218.737 726.3 218.537C728.6 218.604 730.891 218.209 733.036 217.375C735.181 216.54 737.136 215.284 738.787 213.68C740.437 212.076 741.749 210.157 742.645 208.037C743.54 205.917 744.001 203.639 744 201.337V142.537C743.982 141.672 744.151 140.812 744.496 140.018C744.841 139.224 745.354 138.514 746 137.937C747.3 136.737 749 136.037 750.7 136.037C752.5 136.037 754.2 136.637 755.5 137.837C756.094 138.443 756.56 139.163 756.87 139.954C757.179 140.744 757.325 141.589 757.3 142.437V201.437C757.409 206.727 756.07 211.946 753.426 216.529C750.782 221.112 746.934 224.884 742.3 227.437C737.658 230.078 732.416 231.483 727.076 231.518C721.736 231.554 716.476 230.217 711.8 227.637H711.7ZM804.2 228.037C798.9 226.037 794 223.037 789.8 219.037C788.967 218.396 788.285 217.581 787.802 216.648C787.318 215.715 787.044 214.687 787 213.637C787.01 212.805 787.193 211.985 787.537 211.227C787.882 210.47 788.38 209.792 789 209.237C789.552 208.648 790.217 208.175 790.956 207.849C791.695 207.522 792.492 207.348 793.3 207.337C794.8 207.337 796.1 207.837 797.2 208.837C800.4 211.837 804.2 214.337 808.2 216.137C812.4 217.737 816.8 218.537 821.2 218.537C826.2 218.637 831.2 217.337 835.5 214.537C839 212.537 841.3 208.837 841.3 204.737C841.4 200.437 839.2 196.337 835.5 193.937C830.123 190.814 824.23 188.68 818.1 187.637C808.9 185.637 801.8 182.637 796.8 178.337C791.8 174.037 789.4 168.037 789.4 160.437C789.3 155.437 790.7 150.537 793.6 146.437C796.5 142.437 800.4 139.237 805 137.237C815.373 133.1 826.905 132.922 837.4 136.737C841.86 138.222 845.951 140.643 849.4 143.837C851.2 145.237 852.4 147.337 852.4 149.537C852.402 150.338 852.244 151.131 851.935 151.869C851.626 152.608 851.172 153.277 850.6 153.837C850.058 154.473 849.383 154.981 848.622 155.327C847.862 155.673 847.035 155.847 846.2 155.837C845.2 155.837 844 155.437 843.2 154.737C837.319 149.464 829.699 146.545 821.8 146.537C816.8 146.237 811.8 147.537 807.5 150.137C805.871 151.224 804.535 152.696 803.611 154.423C802.686 156.15 802.203 158.079 802.203 160.037C802.203 161.996 802.686 163.924 803.611 165.651C804.535 167.378 805.871 168.851 807.5 169.937C812.388 172.82 817.731 174.849 823.3 175.937C829.2 177.037 834.9 178.937 840.4 181.237C844.6 183.137 848.2 186.037 850.7 189.837C853.3 194.237 854.5 199.137 854.3 204.237C854.4 209.237 852.9 214.037 850 218.037C847 222.237 842.8 225.437 838 227.437C827.118 231.596 815.122 231.809 804.1 228.037H804.2Z" fill="#00C48D"/>
</g>
<g id="Group_2">
<path id="Vector_3" d="M145.242 94.8543L136.519 109.928L106.686 58.364L15.1025 216.635H77.1104C77.1104 224.96 83.8733 231.708 92.2158 231.708H15.1025C9.70641 231.708 4.72064 228.834 2.02302 224.17C-0.674599 219.507 -0.674325 213.762 2.02375 209.098L93.6068 50.8273C96.305 46.1633 101.292 43.2902 106.689 43.2902C112.086 43.2902 117.072 46.1633 119.771 50.8273L145.242 94.8543Z" fill="#00C58E"/>
<path id="Vector_4" d="M211.354 209.098L153.966 109.928L145.242 94.8542L136.519 109.928L79.137 209.098C76.439 213.762 76.4387 219.507 79.1363 224.17C81.8339 228.834 86.8197 231.708 92.2158 231.708H198.256C203.653 231.708 208.641 228.837 211.34 224.173C214.039 219.509 214.04 213.763 211.341 209.098H211.354ZM92.2158 216.635L145.242 125.001L198.256 216.635H92.2158L92.2158 216.635Z" fill="#2F495E"/>
<path id="Vector_5" d="M252.384 224.172C249.686 228.835 244.701 231.708 239.305 231.708H198.256C206.599 231.708 213.361 224.96 213.361 216.635H239.274L165.748 89.5597L153.966 109.928L145.242 94.8542L152.669 82.023C155.367 77.359 160.354 74.4858 165.751 74.4858C171.148 74.4858 176.135 77.359 178.833 82.023L252.384 209.098C255.082 213.762 255.082 219.508 252.384 224.172Z" fill="#108775"/>
</g>
</g>
</svg>
